X: 2
T: Roaring Jelly #1
T: Smash the Windows
O: trad
R: jig
B: Kerr's Caledonian; Kennedy v.1, Cole
N: In O'Neill's as a reel (#1382)
Z: 1997 by John Chambers <jc:trillian.mit.edu>
N: See also Smash the Windows, which has a B1 and a B2 part.
M: 6/8
L: 1/8
K: D
   A \
| "D"D>ED F2A | d2f "A"ecA | "G"G2B "D"F2A | "Em"E2F "A7"GFE \
| "D"D>ED F2A | d2f "A"ecA | "G"Bgf "A7"edc | "D"d3- d2 :|
|: f/g/ \
| "D"a2f d2f | f2g agf | "A7"g2e c2e | e2f gfe \
| "D"fed "A7"gfe | "D"agf "G"bag | "D"fed "A7"cde | "D"fdd d2 :|


